X: 34087
T: Reel De Valcourt
R: reel
M: 4/4
K: Dmajor
A,2|D2FD EDCE|D2FA d2cd|edBc dBAG|FEDF EDCE|
D2FD EDCE|D2FA d2cd|edBc d/c/B AG|FDEC D2:|
|:z2|d2dc Bc/B/ A2|ceed cBAF|D2EF GBAG|FAFD EDCE|
D2FD EDCE|D2FA d2cd|edBc d/c/B AG|FDEC D2:|

